!!!COM: Scriabin, Alexander
!!!OTL@@FR: Prélude en sol dièse mineur
!!!OTL@@EN: Prelude in G# Minor
!!!OPR@@FR: 5 Préludes
!!!OPR@@EN: 5 Preludes
!!!OPS: 16
!!!ONM: 2
!!!ODT: 1895
!!!AGN: Prelude
**kern	**kern	**dynam
*staff2	*staff1	*staff1/2
*Ipiano	*Ipiano	*
*clefG2	*clefG2	*
*k[f#c#g#d#a#]	*k[f#c#g#d#a#]	*
*g#:	*g#:	*
*M2/4	*M2/4	*
=1	=1	=1
[4g#	[4b [4dd#	.
16g#LL]	20bLL] 20dd#]	.
.	20b 20ee	.
16f##X	.	.
.	20b 20dd#	.
16g#	.	.
.	20b 20dd#	.
16BJJ	.	.
.	20dd#JJ 20gg#	.
=2	=2	=2
2e	2g# 2cc#	.
=3	=3	=3
[4d#	[4f##X [4b	.
16d#LL]	20f##LL] 20b]	.
.	20f## 20cc#	.
16e	.	.
.	20f## 20b	.
16d#	.	.
.	20f## 20b	.
16F##XJJ	.	.
.	20a#JJ 20dd#	.
=4	=4	=4
2B	2d# 2g#	.
*clefF4	*	*
=5	=5	=5
[4B	[4d# [4g#	.
16BLL]	20d#LL] 20g#]	.
.	20d# 20a#	.
16A#	.	.
.	20d# 20g#	.
16B	.	.
.	20d# 20g#	.
16G#JJ	.	.
.	20d#JJ 20b	.
=6	=6	=6
[4A#	[4d# [4f#	.
16A#LL]	20d#LL] 20f#]	.
.	20d# 20g#	.
16B	.	.
.	20d# 20f#	.
16A#	.	.
.	20d# 20f#	.
16F#JJ	.	.
.	20d#JJ 20a#	.
=7	=7	=7
*	*^	*
12G#L	4d#	20e#XLL	.
.	.	20f#	.
12c#	.	.	.
.	.	20e#	.
.	.	20a#	.
12BJ	.	.	.
.	.	20g#JJ	.
12A#L	4c##X	20f#LL	.
.	.	20g#	.
12G#	.	.	.
.	.	20f#	.
.	.	20en	.
12A#J	.	.	.
.	.	20f#JJ	.
=8	=8	=8	=8
2d#	2d#	2d#	.
*	*v	*v	*
*clefG2	*	*
=9	=9	=9
[4cc#	[4ee [4gg#	.
16cc#LL]	20eeLL] 20gg#]	.
.	20ee 20aan	.
16b#X	.	.
.	20ee 20gg#	.
16cc#	.	.
.	20ee 20gg#	.
16eJJ	.	.
.	20gg#JJ 20ccc#	.
=10	=10	=10
2an	2cc# 2ff#	.
=11	=11	=11
[4g#	[4b#X [4ee	.
16g#LL]	20b#LL] 20ee]	.
.	20b# 20ff#	.
16an	.	.
.	20b# 20ee	.
16g#	.	.
.	20b# 20ee	.
16B#XJJ	.	.
.	20dd#JJ 20gg#	.
=12	=12	=12
2e	2g# 2cc#	.
=13	=13	=13
[4e	[4g# [4cc#	.
16eLL]	20g#LL] 20cc#]	.
.	20g# 20dd#	.
16d#	.	.
.	20g# 20cc#	.
16e	.	.
.	20g# 20cc#	.
16c#JJ	.	.
.	20g#JJ 20ee	.
=14	=14	=14
[4d#	[4g# [4b	.
16d#LL]	20g#LL] 20b]	.
.	20g# 20cc#	.
16e	.	.
.	20g# 20b	.
16d#	.	.
.	20g# 20b	.
16BJJ	.	.
.	20g#JJ 20dd#	.
=15	=15	=15
*	*^	*
12c#L	4g#	20a#LL	.
.	.	20b	.
12f#	.	.	.
.	.	20a#	.
.	.	20dd#	.
12eJ	.	.	.
.	.	20cc#JJ	.
12d#L	4f##X	20bLL	.
.	.	20cc#	.
12c#	.	.	.
.	.	20b	.
.	.	20an	.
12d#J	.	.	.
.	.	20bJJ	.
=16	=16	=16	=16
2g#	2g#	2g#	.
*clefF4	*	*	*
=17	=17	=17	=17
8FF#L 8F#	2An 2c#	[4an	.
8EE#XJ 8E#X	.	.	.
8FF#L 8F#	.	20aLL]	.
.	.	20b	.
.	.	20a	.
8CC#J 8C#	.	.	.
.	.	20a	.
.	.	20cc#JJ	.
=18	=18	=18	=18
8FF#L 8F#	4An 4e	4cc#	.
8EE#XJ 8E#X	.	.	.
8FF#L 8F#	4A 4d#	4b	.
8BBBJ 8BB	.	.	.
=19	=19	=19	=19
[10BBBL [10BB	8AnL 8B 8d#	[4b	.
20BBBL] 20BB]	.	.	.
.	8AJ 8B 8e	.	.
20BBB#XJ 20BB#X	.	.	.
40r	.	.	.
40CC#Jkk 40C#	.	.	.
8CC#L 8C#	8AL 8B 8e#X	8bL]	.
8DDnJ 8Dn	8AJ 8B 8e#	8anJ	.
*	*v	*v	*
=20	=20	=20
8DDnL 8Dn	8AnL 8B 8e#X 8an	.
[8DD#XJ [8D#X	[8AJ [8B [8f# [8a	.
8DD#L] 8D#]	8AL] 8B] 8f#] 8a]	.
8EEJ 8E	8G#J 8B 8en 8g#	.
=21	=21	=21
*	*^	*
8EEL 8E	2G# 2dn 2g#	[4b	.
8DD#XJ 8D#X	.	.	.
8EEL 8E	.	20bLL]	.
.	.	20cc#	.
.	.	20b	.
8BBBJ 8BB	.	.	.
.	.	20b	.
.	.	20ff#JJ	.
*	*v	*v	*
=22	=22	=22
8EEL 8E	4dn 4g# 4ff#	.
8DD#XJ 8D#X	.	.
8EEL 8E	4d 4g# 4ee	.
8EEEJ 8EE	.	.
=23	=23	=23
4AAAn 4AAn 4E	4c# 4an 4cc# 4ee	.
4AA 4E 4An 4c#	4c# 4g# 4cc# 4ee	.
=24	=24	=24
[4DDD# [4DD# [4AA#X [4F##X [4c#	[4c# [4f##X [4cc# [4ee	.
8DDD#] 8DD#] 8AA#] 8F##] 8c#]	8c#L] 8f##] 8cc#] 8ee]	.
8r	8d#J 8dd#	.
=25	=25	=25
[4GG# [4G#	[4d# [4b [4dd#	.
20GG#LL] 20G#]	20d#LL] 20b] 20dd#]	.
20FF##X 20F##X	20e 20b 20ee	.
20GG# 20G#	20d# 20b 20dd#	.
20GG# 20G#	20d# 20b 20dd#	.
20BBBJJ 20BB	20g#JJ 20dd# 20gg#	.
=26	=26	=26
2EE 2E	2c# 2g# 2cc#	.
=27	=27	=27
[4DD# [4D#	[4B [4f##X [4b	.
20DD#LL] 20D#]	20BLL] 20f##] 20b]	.
20EE 20E	20c# 20f## 20cc#	.
20DD# 20D#	20B 20f## 20b	.
20DD# 20D#	20B 20f## 20b	.
20FFF##XJJ 20FF##X	20d#JJ 20a# 20dd#	.
=28	=28	=28
2BBB 2BB	2G# 2d# 2g#	.
=29	=29	=29
[4BBB [4BB	[4G# [4d# [4g#	.
20BBBLL] 20BB]	20G#LL] 20d#] 20g#]	.
20AAA# 20AA#	20A# 20d# 20a#	.
20BBB 20BB	20G# 20d# 20g#	.
20BBB 20BB	20G# 20d# 20g#	.
20GGG#JJ 20GG#	20BJJ 20d# 20b	.
=30	=30	=30
[4CC# [4C#	[4A# [4e [4g# [4a#	.
20CC#LL] 20C#]	20A#LL] 20e] 20g#] 20a#]	.
20BBB 20BB	20B 20e 20g# 20b	.
20CC# 20C#	20A# 20e 20g# 20a#	.
20CC# 20C#	20A# 20e 20g# 20a#	.
20AAA#JJ 20AA#	20c#JJ 20e 20g# 20cc#	.
=31	=31	=31
20DD#LL 20D#	20B#XLL 20g# 20b#X	.
20EE 20E	20c# 20g# 20cc#	.
20DD# 20D#	20B# 20g# 20b#	.
20DD# 20D#	20B# 20g# 20b#	.
20FF#JJ 20F#	20d#JJ 20g# 20dd#	.
20EELL 20E	20c#LL 20g# 20cc#	.
20FF# 20F#	20d# 20g# 20dd#	.
20EE 20E	20c# 20g# 20cc#	.
20EE 20E	20c# 20g# 20cc#	.
20CC#JJ 20C#	20eJJ 20g# 20ee	.
=32	=32	=32
2FF##X 2F##X	2d# 2a# 2dd#	.
=33	=33	=33
8r	8r	.
8GG# 8D# 8B	8d# 8g# 8dd#	.
8AA#L 8D# 8c#	8f##XL 8dd# 8ff##X	.
8BBJ 8E 8c##X	8g#J 8ee 8gg#	.
=34	=34	=34
2G# 2c##X 2e 2g#	2b 2ee 2bb	.
=35	=35	=35
16qDD#/LL 16qD#	.	.
16qBB/JJ 16qB	.	.
2G# 2c#X 2e 2g#	2b 2ee 2gg# 2bb	.
=36	=36	=36
16qDD#/LL 16qD#	.	.
16qBB/JJ 16qB	.	.
2F##X 2c# 2e 2f##X	2b 2ee 2ff##X 2bb	.
=37	=37	=37
16qGGG#/LL 16qGG#	.	.
16qD#/JJ 16qd#	.	.
[2G# [2B [2d# [2g#	[2b [2dd# [2gg# [2bb	.
=38	=38	=38
2G#] 2B] 2d#] 2g#]	2b] 2dd#] 2gg#] 2bb]	.
==	==	==
*-	*-	*-
!!!system-decoration: {(*)}
!!!ENC: Bryan Jacob Bell
!!!END: November 2021 to April 2022
!!!PED: Günter Philipp
!!!PTL: Ausgewählte Klavierwerke (Edition Peters)
